X: 12578
T: Farewell To Stromness
R: strathspey
M: 4/4
K: Dmajor
|:f<g a>d B<d c>A|f<g a>d B<d e2|f<g a>d A<d c>A|a<g f>d B<d d2:|
|:b<c' d'>d e<d c>A|b<c' d'>d B<d e2|b<c' d'>d e<d c>A|b<c' d'>d B<d e2:|

